src/img/btn-abc.svg

<svg width="35" height="34" viewBox="0 0 35 34" fill="none" xmlns="http://www.w3.org/2000/svg">
<rect x="0.5" y="0.5" width="34" height="33" rx="9.5" fill="white" stroke="#E1E1E1"/>
<path d="M22.43 16.57H17.18L16.145 19H14.135L18.86 8.5H20.78L25.52 19H23.48L22.43 16.57ZM21.785 15.04L19.805 10.45L17.84 15.04H21.785Z" fill="#2E5BFF"/>
<path d="M9 20.5L11.5 23M11.5 23L14 20.5M11.5 23V12" stroke="#2E5BFF" stroke-width="1.2"/>
<path d="M21.33 20V27H20.05V25.05H18.32H18.18L16.88 27H15.51L17.01 24.84C16.5233 24.66 16.1467 24.3767 15.88 23.99C15.62 23.5967 15.49 23.1233 15.49 22.57C15.49 22.0367 15.61 21.5767 15.85 21.19C16.09 20.8033 16.43 20.51 16.87 20.31C17.31 20.1033 17.8267 20 18.42 20H21.33ZM18.46 21.1C17.9267 21.1 17.5167 21.2233 17.23 21.47C16.95 21.7167 16.81 22.0767 16.81 22.55C16.81 23.01 16.9467 23.3667 17.22 23.62C17.4933 23.8667 17.89 23.99 18.41 23.99H20.05V21.1H18.46Z" fill="#2E5BFF"/>
</svg>

<svg width="35" height="34" fill="none" xmlns="http://www.w3.org/2000/svg"><rect x=".5" y=".5" width="34" height="33" rx="9.5" fill="#fff" stroke="#E1E1E1"/><path d="M22.43 16.57h-5.25L16.145 19h-2.01L18.86 8.5h1.92L25.52 19h-2.04l-1.05-2.43zm-.645-1.53l-1.98-4.59-1.965 4.59h3.945z" fill="#2E5BFF"/><path d="M9 20.5l2.5 2.5m0 0l2.5-2.5M11.5 23V12" stroke="#2E5BFF" stroke-width="1.2"/><path d="M21.33 20v7h-1.28v-1.95h-1.87L16.88 27h-1.37l1.5-2.16c-.487-.18-.863-.463-1.13-.85-.26-.393-.39-.867-.39-1.42 0-.533.12-.993.36-1.38.24-.387.58-.68 1.02-.88.44-.207.957-.31 1.55-.31h2.91zm-2.87 1.1c-.533 0-.943.123-1.23.37-.28.247-.42.607-.42 1.08 0 .46.137.817.41 1.07.273.247.67.37 1.19.37h1.64V21.1h-1.59z" fill="#2E5BFF"/></svg>
